X: 147
T:Miss Freers Delight. JC.146
M:6/8
L:1/8
Q:120
S:John Clare,Poet,Helpstone (1793-1864)
R:Jig
O:England
A:Northamptonshire
N:2nd word of title is unclear.
Z:vmp.P. Headford
K:D
d/B/|AFD DFD|AFD DdB|AFD DFD|GEEE2d/c/|!
AFD DFD|AFAd2e|fed BdB|AFDD2|!
|f/g/|afd dfd|afdd2f/g/|afd dfd|gde e2f/g/|!
afd dfd|afd efg|fed B/c/dB|AFDD2|]
